Obsidian/actions/22s/kdenlive-select-images.svg

<svg height="22" viewBox="0 0 22 22" width="22" xmlns="http://www.w3.org/2000/svg"><path d="m2 2.0039062c-1 0-1 1-1 1v4h2v-3h3v-2zm8 0v2h3v3h2v-4c0-1-1-1-1-1zm-3.0097656 2.9960938v1h2v-1zm0 2v4h2v-4zm-5.9902344 2.0039062v3.9999998c0 1 1 1 1 1h4v-2h-3v-2.9999998zm12 0v2.9999998h-3v2h4s1 0 1-1v-3.9999998z" fill="#bebebe" transform="translate(3 3)"/></svg>

<svg xmlns="http://www.w3.org/2000/svg" width="22" height="22" viewBox="0 0 22 22">
 <defs>
  <style id="current-color-scheme" type="text/css">
   .ColorScheme-Text { color:#bebebe; } .ColorScheme-Highlight { color:#4285f4; }
  </style>
 </defs>
 <path style="fill:currentColor" class="ColorScheme-Text" d="M 2 2.0039062 C 1 2.0039062 1 3.0039062 1 3.0039062 L 1 7.0039062 L 3 7.0039062 L 3 4.0039062 L 6 4.0039062 L 6 2.0039062 L 2 2.0039062 z M 10 2.0039062 L 10 4.0039062 L 13 4.0039062 L 13 7.0039062 L 15 7.0039062 L 15 3.0039062 C 15 2.0039062 14 2.0039062 14 2.0039062 L 10 2.0039062 z M 6.9902344 5 L 6.9902344 6 L 8.9902344 6 L 8.9902344 5 L 6.9902344 5 z M 6.9902344 7 L 6.9902344 11 L 8.9902344 11 L 8.9902344 7 L 6.9902344 7 z M 1 9.0039062 L 1 13.003906 C 1 14.003906 2 14.003906 2 14.003906 L 6 14.003906 L 6 12.003906 L 3 12.003906 L 3 9.0039062 L 1 9.0039062 z M 13 9.0039062 L 13 12.003906 L 10 12.003906 L 10 14.003906 L 14 14.003906 C 14 14.003906 15 14.003906 15 13.003906 L 15 9.0039062 L 13 9.0039062 z" transform="translate(3 3)"/>
</svg>
